icons/flakelock.svg

<svg xmlns="http://www.w3.org/2000/svg" width="16" height="16" fill="none"><path fill="#909090" d="M6.36 6 3.1 11.59l-.77-1.31.91-1.59H1.42L1 8l.42-.69H4L4.76 6h1.6Zm.73 4.41h6.44l-.77 1.31h-1.82l.91 1.59-.42.69h-.77L9.4 11.72H7.9l-.81-1.31Zm3.47-2.87L7.3 2h1.54l.91 1.59.91-1.59h.77l.42.69-1.33 2.21.85 1.31-.81 1.33ZM8.88 5.59H2.4l.77-1.31h1.82l-.91-1.59L4.5 2h.77L6.6 4.21h1.5l.78 1.38ZM9.64 10l3.26-5.59.77 1.31-.91 1.59h1.82L15 8l-.42.69h-2.59L11.24 10h-1.6ZM5.46 8.57l3.24 5.36H7.16l-.91-1.58-.77 1.58h-.91l-.42-.69 1.33-2.2-.75-1.17.73-1.3Z"/></svg>

<svg width="16" height="16" viewBox="0 0 16 16" fill="none" xmlns="http://www.w3.org/2000/svg">
<path d="M6.36 6L3.1 11.59L2.33 10.28L3.24 8.69H1.42L1 8L1.42 7.31H4L4.76 6H6.36ZM7.09 10.41H13.53L12.76 11.72H10.94L11.85 13.31L11.43 14H10.66L9.4 11.72H7.9L7.09 10.41ZM10.56 7.54L7.3 2H8.84L9.75 3.59L10.66 2H11.43L11.85 2.69L10.52 4.9L11.37 6.21L10.56 7.54Z" fill="#909090"/>
<path d="M8.88 5.59H2.4L3.17 4.28H4.99L4.08 2.69L4.5 2H5.27L6.6 4.21H8.1L8.88 5.59Z" fill="#909090"/>
<path d="M9.64 9.99997L12.9 4.40997L13.67 5.71997L12.76 7.30997H14.58L15 7.99997L14.58 8.68997H11.99L11.24 9.99997H9.64Z" fill="#909090"/>
<path d="M5.46 8.57001L8.7 13.93H7.16L6.25 12.35L5.48 13.93H4.57L4.15 13.24L5.48 11.04L4.73 9.87001L5.46 8.57001Z" fill="#909090"/>
</svg>
